src/main/resources/icons/PythonIcons/icons/com/jetbrains/python/DataView_dark.svg

<svg xmlns="http://www.w3.org/2000/svg" width="13" height="13" viewBox="0 0 13 13"><rect id="frame" width="13" height="13" fill="none"/><path fill="#AFB1B3" fill-rule="evenodd" d="M4 5h5v3H4V5zm0-1V2h5v2H4zm8 1v3h-2V5h2zm0-1h-2V2h2v2zM1 5h2v3H1V5zm0-1V2h2v2H1zm3 5h5v2H4V9zm8 0v2h-2V9h2zM1 9h2v2H1V9z"/></svg>

<svg xmlns="http://www.w3.org/2000/svg" width="13" height="13" viewBox="0 0 13 13">
  <path fill="#AFB1B3" fill-rule="evenodd" d="M4,5 L9,5 L9,8 L4,8 L4,5 Z M4,4 L4,2 L9,2 L9,4 L4,4 Z M12,5 L12,8 L10,8 L10,5 L12,5 Z M12,4 L10,4 L10,2 L12,2 L12,4 Z M1,5 L3,5 L3,8 L1,8 L1,5 Z M1,4 L1,2 L3,2 L3,4 L1,4 Z M4,9 L9,9 L9,11 L4,11 L4,9 Z M12,9 L12,11 L10,11 L10,9 L12,9 Z M1,9 L3,9 L3,11 L1,11 L1,9 Z"/>
</svg>
